!!!!SEGMENT: pl-wnifc--13878--001-001_sikorski-jozef--nowe-spiewy-dla-dzieci-stanislaw-jachowicz-piesn-przy-stawianiu-domkow.krn
!!!cenid: 18xx:4748
!!!COM: Sikorski, Józef
!!!COM-rismID: pe50046698
!!!CDT: 1815/10/31-1896/05/04
!!!CNT: Polish
!!!GTL: Nowe śpiewy dla dzieci (Stanisław Jachowicz)
!!!OTL: Pieśń przy stawianiu domków
!!!OMV: 001
!!!PDT: 1856
!!!AGN: Secular; Song; Children
!!!YEC: Copyright 2022 Narodowy Instytut Fryderyka Chopina (https://polishscores.org)
!!!YEM: License CC-BY-4.0 (https://creativecommons.org/licenses/by/4.0)
!!!SMS-siglum: PL-Wnifc
!!!SMS-shelfmark: 13878
!!!SMS-variant:
!!!SMS-altvar:
!!!SMS-shelfwork: 001-001 G
!!!NIFC-rismSourceID: 1001203553
!!!NIFC-rismChildID: 1001203553
!!!NIFC-islandoraID: nifc:211143
!!!URL-pdf-islandora: https://repozytorium.nifc.pl/islandora/object/nifc%3A211143/datastream/PDF/view
!!!URL-scan: https://polish.musicsources.pl/pl/lokalizacje/galeria/druki-muzyczne/16798/19 @EN{Scan on Polish Music Sources Website} @PL{Skany w portalu Dziedzictwo Muzyki Polskiej w otwartym dostępie}
!!!IIIF:
!!!ONB-nifc:
!!!AIN: 1 piano 1 vox
!!!key: F
**kern	**kern	**kern	**text	**text
*part2	*part2	*part1	*part1	*part1
*staff3	*staff2	*staff1	*staff1	*staff1
*>[A,B,C,B]	*>[A,B,C,B]	*>[A,B,C,B]	*	*
*>A	*>A	*>A	*	*
*ICklav	*ICklav	*ICvox	*	*
*Ipiano	*Ipiano	*Ivox	*	*
*I"PIANO	*I"FORTE	*I"GŁOS	*	*
*I'pf	*I'pf	*I'V	*	*
*clefF4	*clefG2	*clefG2	*	*
*k[b-]	*k[b-]	*k[b-]	*	*
*F:	*F:	*F:	*	*
*M3/8	*M3/8	*M3/8	*	*
=1	=1	=1	=1	=1
8F\L	4.r	4.r	.	.
8c 8A\	.	.	.	.
8cJ 8A\	.	.	.	.
=2	=2	=2	=2	=2
8F\L	4.r	4.r	.	.
8c 8A\	.	.	.	.
8cJ 8A\	.	.	.	.
!LO:TX:b:t=[segno|smaller]	!LO:TX:a:t=[segno|smaller]	!LO:TX:a:t=[segno|smaller]	!	!
=3||	=3||	=3||	=3||	=3||
*>B	*>B	*>B	*	*
8F\L	16a/LL	16a/	O-	Ja
.	16f/JJ	16f/	-tóż	mieć
8c 8A\	8.cc\L	8.cc\	do-	pra-
8cJ 8G\	.	.	.	.
.	16b-\Jk	16b-\	-mek!	-gnę
=4	=4	=4	=4	=4
8F\L	16a/LL	16a/	rzecz	dom
.	16f/JJ	16f/	skoń-	ni-
8c 8A\	8.cc\L	8.cc\	-czo-	-ziut-
8cJ 8G\	.	.	.	.
.	16b-\Jk	16b-\	-na,	-ki,
!!LO:LB:g=original
=5	=5	=5	=5	=5
8F\L	16a/LL	16a/	Chwa-	a
.	16f/JJ	16f/	-łaż	nim
8c 8A\	8a\L	8a\	To-	go
8cJ 8A\	8cc\J	8cc\	-bie,	wy-
=6	=6	=6	=6	=6
8F\L	8dd\L	8dd\	Bo-	-sła-
8c 8A\	8cc\J	8cc\	-że!	-wie,
8cJ 8G 8E\	8r	8r	.	.
=7	=7	=7	=7	=7
8F\L	16a/LL	16a/	Kto	Sta-
.	16f/JJ	16f/	za-	-wiam
8c 8A\	8.cc\L	8.cc\	-mie-	so-
8F\J	.	.	.	.
.	16a\Jk	16a\	-rzy,	-bie
=8	=8	=8	=8	=8
8BB-\L	16b-/LL	16b-/	to	z drze-
.	16g/JJ	16g/	do-	-wa
8G 8D\	8.dd\L	8.dd\	-ko-	bud-
8BB-\J	.	.	.	.
.	16cc\Jk	16cc\	-na	-ki
=9	=9	=9	=9	=9
8C\L	16cc\LL	16cc\	Je-	J
.	16b-\JJ	16b-\	-źli	nie-
8G 8E\	8g\L	8g/	chęć	-mi
8GJ 8E\	8cc\J	8cc\	po-	się
!!LO:LB:g=original
=10	=10	=10	=10	=10
8F\	16a/LL	(16a/LL	-mo-	ba-
.	16g/JJ	16g/JJ)	.	.
4A 4F\	4f/	4f/	-że	-wie.
!!LO:TX:a:B:rj:t=Fine
=11||	=11||	=11||	=11||	=11||
*>C	*>C	*>C	*	*
!!LO:TX:a:Bi:t=żywiéj
8C'\L	16e/LL	16e/	Do-	.
.	16g/JJ	16g/	-mek	.
8E'\	8a/L	8a/	to	.
8G'\J	8g/J	8g/	rzecz	.
=12	=12	=12	=12	=12
8C'\L	16e/LL	16e/	wy-	.
.	16g/JJ	16g/	-śmie-	.
8E'\	8a/L	8a/	-ni-	.
8G'\J	8g/J	8g/	-ta,	.
=13	=13	=13	=13	=13
8C'\L	16e/LL	16e/	Wiel-	.
.	16g/JJ	16g/	-ka	.
8E'\	8a/L	8a/	to	.
8G'\J	8g/J	8g/	wy-	.
=14	=14	=14	=14	=14
8C'\L	4cc\	4cc\	-go-	.
8E'\	.	.	.	.
8G'\J	8g/	8g/	-da,	.
!!LO:LB:g=original
=15	=15	=15	=15	=15
8C'\L	16e/LL	16e/	Kto	.
.	16g/JJ	16g/	ma	.
8E'\	8a/L	8a/	do-	.
8G'\J	8g/J	8g/	-mek,	.
=16	=16	=16	=16	=16
8C'\L	16e/LL	16e/	to	.
.	16g/JJ	16g/	nie	.
8E'\	8a/L	8a/	py-	.
8G'\J	8g/J	8g/	-ta:	.
=17	=17	=17	=17	=17
!!LO:TX:a:Bi:t=zwalniając nieco
8C'\L	16e/LL	16e/	Czy	.
.	16g/JJ	16g/	deszcz,	.
8F'\	8a\L	8a/	czy	.
!	!LO:SIC:v:s=8b\J	!	!	!
8G'\J	8b-\J	8bn\	po-	.
=18	=18	=18	=18	=18
8C'\L	4cc\	4cc\	-go-	.
8E'\	.	.	.	.
8G'\J	8b-X\	8b-X\	-da.	.
!LO:TX:b:Bi:t=Dal Segno al Fine.	!	!	!	!
!LO:TX:b:t=[segno|smaller]	!LO:TX:a:t=[segno|smaller]	!LO:TX:a:t=[segno|smaller]	!	!
==	==	==	==	==
*-	*-	*-	*-	*-
!!!system-decoration: vox{(klav)}
!!!ENC: Filip Voros
!!!END: 2025-03-20
!!!EED: Andrzej Kubiczek
!!!EEV: 2025-03-27
